Sardi Arc/places/16/media-floppy.svg

<svg height="24" width="24" xmlns="http://www.w3.org/2000/svg" xmlns:xlink="http://www.w3.org/1999/xlink">
  <linearGradient id="a" gradientUnits="userSpaceOnUse" x1="21.875" x2="21.875" y1="48.000977" y2="40">
    <stop offset="0" stop-opacity="0"/>
    <stop offset=".5"/>
    <stop offset="1" stop-opacity="0"/>
  </linearGradient>
  <radialGradient id="b" cx="1" cy="44" gradientTransform="matrix(2 0 0 .8 36 8.8)" gradientUnits="userSpaceOnUse" r="5" xlink:href="#c"/>
  <linearGradient id="c">
    <stop offset="0"/>
    <stop offset="1" stop-opacity="0"/>
  </linearGradient>
  <radialGradient id="d" cx="1" cy="44" gradientTransform="matrix(2 0 0 .8 -13 -79.2)" gradientUnits="userSpaceOnUse" r="5" xlink:href="#c"/>
  <linearGradient id="e" gradientTransform="matrix(-.4999718 0 0 -.4999719 23.249369 24.24937)" gradientUnits="userSpaceOnUse" x1="3.6261616" x2="41.968018" y1="2.5845432" y2="40.926399">
    <stop offset="0" stop-color="#040404"/>
    <stop offset="1" stop-color="#606060"/>
  </linearGradient>
  <linearGradient id="f" gradientTransform="matrix(-.5007365 0 0 -.4615091 23.277622 22.652628)" gradientUnits="userSpaceOnUse" x1="33.349056" x2="35.974056" y1="28.69302" y2="33.049397">
    <stop offset="0" stop-color="#010306"/>
    <stop offset="1" stop-color="#010306" stop-opacity=".39607844"/>
  </linearGradient>
  <linearGradient id="g" gradientTransform="matrix(-.5 0 0 -.4614131 23.750001 22.648647)" gradientUnits="userSpaceOnUse" x1="10" x2="31" y1="27.996471" y2="42">
    <stop offset="0" stop-color="#d4d4dc"/>
    <stop offset="1" stop-color="#848489"/>
  </linearGradient>
  <linearGradient id="h" gradientTransform="matrix(-.4436969 0 0 -.3636362 22.589058 19.227268)" gradientUnits="userSpaceOnUse" x1="20.484835" x2="27.375" y1="35" y2="42.125">
    <stop offset="0" stop-color="#ffffff"/>
    <stop offset="1" stop-color="#ffffff" stop-opacity="0"/>
  </linearGradient>
  <linearGradient id="i" gradientTransform="matrix(.4999999 0 0 -.4999099 .7500002 24.247704)" gradientUnits="userSpaceOnUse" x1="37.625" x2="37.625" y1="7.625" y2="3.4829895">
    <stop offset="0" stop-color="#010306"/>
    <stop offset="1" stop-color="#010306" stop-opacity="0"/>
  </linearGradient>
  <linearGradient id="j" gradientTransform="matrix(.4641635 0 0 .4760795 1.5563226 -24.163954)" gradientUnits="userSpaceOnUse" x1="21.875" x2="21.875" y1="7.6059465" y2="18.51421">
    <stop offset="0" stop-color="#eeeeec"/>
    <stop offset="1" stop-color="#ffffff"/>
  </linearGradient>
  <linearGradient id="k" gradientTransform="matrix(-.5 0 0 -.4614131 23.750001 22.648647)" gradientUnits="userSpaceOnUse" x1="10" x2="31" y1="27.996471" y2="42">
    <stop offset="0" stop-color="#ffffff"/>
    <stop offset=".5" stop-color="#e6e6e6"/>
    <stop offset=".75" stop-color="#ffffff"/>
    <stop offset=".84166664" stop-color="#e1e1e1"/>
    <stop offset="1" stop-color="#ffffff"/>
  </linearGradient>
  <g opacity=".3" transform="matrix(.510629 0 0 .5 -.5104105 0)">
    <path d="m-11-48h10v8h-10z" fill="url(#d)" opacity="1" overflow="visible" transform="scale(-1)"/>
    <path d="m38 40h10v8h-10z" fill="url(#b)" opacity="1" overflow="visible"/>
    <path d="m11 40h27v8h-27z" fill="url(#a)" opacity="1" overflow="visible"/>
  </g>
  <path d="m21.114554 22.499466l-18.2291041 0c-.4161975 0-.3849156.031283-.3849156-.384913l0-18.2291042c0-.4161987-.0312819-.3849141.3849156-.3849141l16.8641171 0 1.7499 1.7499026 0 16.8641157c0 .416196.031283.384913-.384913.384913z" fill="url(#e)" overflow="visible" stroke="#121212" stroke-linecap="round" stroke-linejoin="round"/>
  <path d="m16.735448 9.4996183l-11.4517453 0c-.4341713 0-.7837027-.3221506-.7837027-.7223096l0-5.2773088 13.019152 0 0 5.2773088c0 .400159-.349531.7223096-.783704.7223096z" style="opacity:.26190473;fill:none;stroke-width:.99999994;stroke-linecap:round;stroke-linejoin:round;overflow:visible;stroke:url(#f)"/>
  <path d="m17.843752 9.4983721c.415301-.0353114.718562-.441234.656249-.8485817 0-1.7165968.000001-3.4331936.000001-5.1497904-3.333334 0-6.666668 0-10.000002 0 .0025616 1.7924061-.0051266 3.5850896.0038501 5.3773221.0419874.4488665.5212874.6748672.9286879.62105 2.803738 0 5.607476 0 8.411214 0zm-1.5625-.9228277c-.666667-.0000002-1.862342 0-2.529009 0-.342449-.0132023-.278818-.3889621-.28125-.6246205 0-.9357134 0-2.2624324 0-3.1981458.048279-.3486815.450245-.2430033.698479-.2595457.537012.0105796 1.606858-.0215067 2.141395.0166602.288466.1209345.160705.469233.189134.7122683 0 .9009442.000001 2.1928939.000001 3.0938381-.002547.1249377-.105089.2252874-.21875.2595454z" fill="url(#g)" overflow="visible" stroke="#555753" stroke-linecap="round" stroke-linejoin="round"/>
  <path d="m17.264695 8.5000001l-7.5293899 0c-.1303585 0-.2353053-.0860108-.2353053-.1928484l0-3.8071516 7.9999992 0 0 3.8071516c0 .1068376-.104945.1928484-.235304.1928484z" style="opacity:.60674157;fill:none;stroke-linecap:round;stroke-linejoin:round;overflow:visible;stroke:url(#h)"/>
  <path d="m19.5 22.498017l0-10.240518c0-.419654-.337907-.757499-.757638-.757499l-13.4847247 0c-.4197311 0-.7576372.337845-.7576372.757499l0 10.240518 14.9999999 0z" style="opacity:.6;fill:none;stroke-linecap:round;stroke-linejoin:round;overflow:visible;stroke:url(#i)"/>
  <rect fill="url(#j)" height="9.9976692" overflow="visible" rx=".0876243" ry=".0898738" stroke="#e2e2df" stroke-linecap="round" stroke-linejoin="round" transform="scale(1 -1)" width="12.996577" x="5.5017123" y="-22.497669"/>
  <path d="m5.5179852 22.500001h12.9640318" style="fill:#3f6cff;fill-opacity:.75;fill-rule:evenodd;stroke:#575757;stroke-linecap:round;stroke-linejoin:round"/>
  <path d="m5.4999998 18.5h12.9999992" fill="none" stroke="#d3d7cf" stroke-linecap="round" stroke-linejoin="round"/>
  <path d="m5.4999998 15.5h12.9999992" fill="none" stroke="#d3d7cf" stroke-linecap="round" stroke-linejoin="round"/>
  <path d="m17.843752 9.4983721c.415301-.0353114.718562-.441234.656249-.8485817 0-1.7165968.000001-3.4331936.000001-5.1497904-3.333334 0-6.666668 0-10.000002 0 .0025616 1.7924061-.0051266 3.5850896.0038501 5.3773221.0419874.4488665.5212874.6748672.9286879.62105 2.803738 0 5.607476 0 8.411214 0zm-1.5625-.9916781c-.666667-.0000002-1.839342 0-2.506009 0-.342449-.0132023-.278818-.3889621-.28125-.6246205 0-.9357134 0-2.1705816 0-3.106295.048279-.3486815.450245-.2430033.698479-.2595457.537012.0105796 1.583858-.0215067 2.118395.0166602.288466.1209345.160705.469233.189134.7122683 0 .9009442.000001 2.1010431.000001 3.0019873-.002547.1249377-.105089.2252874-.21875.2595454z" style="opacity:.5;stroke:#555753;stroke-linecap:round;stroke-linejoin:round;overflow:visible;fill:url(#k)"/>
</svg>

<?xml version="1.0" encoding="UTF-8" standalone="no"?>
<!-- Created with Inkscape (http://www.inkscape.org/) -->

<svg
   xmlns:dc="http://purl.org/dc/elements/1.1/"
   xmlns:cc="http://creativecommons.org/ns#"
   xmlns:rdf="http://www.w3.org/1999/02/22-rdf-syntax-ns#"
   xmlns:svg="http://www.w3.org/2000/svg"
   xmlns="http://www.w3.org/2000/svg"
   xmlns:xlink="http://www.w3.org/1999/xlink"
   xmlns:sodipodi="http://sodipodi.sourceforge.net/DTD/sodipodi-0.dtd"
   xmlns:inkscape="http://www.inkscape.org/namespaces/inkscape"
   width="24"
   height="24"
   id="svg2"
   sodipodi:version="0.32"
   inkscape:version="0.48.3.1 r9886"
   version="1.0"
   sodipodi:docname="system-floppy.svg"
   inkscape:output_extension="org.inkscape.output.svg.inkscape">
  <defs
     id="defs4">
    <linearGradient
       id="linearGradient2804">
      <stop
         id="stop2806"
         offset="0"
         style="stop-color:black;stop-opacity:0;" />
      <stop
         style="stop-color:black;stop-opacity:1;"
         offset="0.5"
         id="stop2812" />
      <stop
         id="stop2808"
         offset="1"
         style="stop-color:black;stop-opacity:0;" />
    </linearGradient>
    <linearGradient
       inkscape:collect="always"
       xlink:href="#linearGradient2804"
       id="linearGradient2531"
       gradientUnits="userSpaceOnUse"
       x1="21.875"
       y1="48.000977"
       x2="21.875"
       y2="40" />
    <radialGradient
       inkscape:collect="always"
       xlink:href="#linearGradient2781"
       id="radialGradient2529"
       gradientUnits="userSpaceOnUse"
       gradientTransform="matrix(2,0,0,0.8,36,8.8)"
       cx="1"
       cy="44"
       fx="1"
       fy="44"
       r="5" />
    <linearGradient
       id="linearGradient2781"
       inkscape:collect="always">
      <stop
         id="stop2783"
         offset="0"
         style="stop-color:black;stop-opacity:1;" />
      <stop
         id="stop2785"
         offset="1"
         style="stop-color:black;stop-opacity:0;" />
    </linearGradient>
    <radialGradient
       inkscape:collect="always"
       xlink:href="#linearGradient2781"
       id="radialGradient2527"
       gradientUnits="userSpaceOnUse"
       gradientTransform="matrix(2,0,0,0.8,-13,-79.2)"
       cx="1"
       cy="44"
       fx="1"
       fy="44"
       r="5" />
    <linearGradient
       id="linearGradient6375">
      <stop
         id="stop6377"
         offset="0"
         style="stop-color:#040404;stop-opacity:1" />
      <stop
         id="stop6379"
         offset="1"
         style="stop-color:#606060;stop-opacity:1" />
    </linearGradient>
    <linearGradient
       inkscape:collect="always"
       xlink:href="#linearGradient6375"
       id="linearGradient2521"
       gradientUnits="userSpaceOnUse"
       gradientTransform="matrix(-0.4999718,0,0,-0.4999719,23.249369,24.24937)"
       x1="3.6261616"
       y1="2.5845432"
       x2="41.968018"
       y2="40.926399" />
    <linearGradient
       id="linearGradient2388">
      <stop
         id="stop2390"
         offset="0"
         style="stop-color:#010306;stop-opacity:1;" />
      <stop
         id="stop2392"
         offset="1"
         style="stop-color:#010306;stop-opacity:0.39607844;" />
    </linearGradient>
    <linearGradient
       inkscape:collect="always"
       xlink:href="#linearGradient2388"
       id="linearGradient2518"
       gradientUnits="userSpaceOnUse"
       gradientTransform="matrix(-0.5007365,0,0,-0.4615091,23.277622,22.652628)"
       x1="33.349056"
       y1="28.69302"
       x2="35.974056"
       y2="33.049397" />
    <linearGradient
       id="linearGradient4235">
      <stop
         style="stop-color:#d4d4dc;stop-opacity:1"
         offset="0"
         id="stop4237" />
      <stop
         style="stop-color:#848489;stop-opacity:1"
         offset="1"
         id="stop4239" />
    </linearGradient>
    <linearGradient
       inkscape:collect="always"
       xlink:href="#linearGradient4235"
       id="linearGradient3311"
       gradientUnits="userSpaceOnUse"
       gradientTransform="matrix(-0.5,0,0,-0.4614131,23.750001,22.648647)"
       x1="10"
       y1="27.996471"
       x2="31"
       y2="42" />
    <linearGradient
       inkscape:collect="always"
       id="linearGradient2319">
      <stop
         style="stop-color:#ffffff;stop-opacity:1;"
         offset="0"
         id="stop2321" />
      <stop
         style="stop-color:#ffffff;stop-opacity:0;"
         offset="1"
         id="stop2323" />
    </linearGradient>
    <linearGradient
       inkscape:collect="always"
       xlink:href="#linearGradient2319"
       id="linearGradient2505"
       gradientUnits="userSpaceOnUse"
       gradientTransform="matrix(-0.4436969,0,0,-0.3636362,22.589058,19.227268)"
       x1="20.484835"
       y1="35"
       x2="27.375"
       y2="42.125" />
    <linearGradient
       id="linearGradient2249">
      <stop
         style="stop-color:#010306;stop-opacity:1;"
         offset="0"
         id="stop2251" />
      <stop
         style="stop-color:#010306;stop-opacity:0;"
         offset="1"
         id="stop2253" />
    </linearGradient>
    <linearGradient
       inkscape:collect="always"
       xlink:href="#linearGradient2249"
       id="linearGradient2502"
       gradientUnits="userSpaceOnUse"
       gradientTransform="matrix(0.4999999,0,0,-0.4999099,0.7500002,24.247704)"
       x1="37.625"
       y1="7.625"
       x2="37.625"
       y2="3.4829895" />
    <linearGradient
       inkscape:collect="always"
       id="linearGradient2268">
      <stop
         style="stop-color:#eeeeec"
         offset="0"
         id="stop2270" />
      <stop
         style="stop-color:#ffffff;stop-opacity:1"
         offset="1"
         id="stop2272" />
    </linearGradient>
    <linearGradient
       inkscape:collect="always"
       xlink:href="#linearGradient2268"
       id="linearGradient2499"
       gradientUnits="userSpaceOnUse"
       gradientTransform="matrix(0.4641635,0,0,0.4760795,1.5563226,-24.163954)"
       x1="21.875"
       y1="7.6059465"
       x2="21.875"
       y2="18.51421" />
    <linearGradient
       id="linearGradient2555">
      <stop
         id="stop2557"
         offset="0"
         style="stop-color:#ffffff;stop-opacity:1;" />
      <stop
         style="stop-color:#e6e6e6;stop-opacity:1.0000000;"
         offset="0.50000000"
         id="stop2561" />
      <stop
         id="stop2563"
         offset="0.75000000"
         style="stop-color:#ffffff;stop-opacity:1.0000000;" />
      <stop
         style="stop-color:#e1e1e1;stop-opacity:1.0000000;"
         offset="0.84166664"
         id="stop2565" />
      <stop
         id="stop2559"
         offset="1.0000000"
         style="stop-color:#ffffff;stop-opacity:1.0000000;" />
    </linearGradient>
    <linearGradient
       inkscape:collect="always"
       xlink:href="#linearGradient2555"
       id="linearGradient3308"
       gradientUnits="userSpaceOnUse"
       gradientTransform="matrix(-0.5,0,0,-0.4614131,23.750001,22.648647)"
       x1="10"
       y1="27.996471"
       x2="31"
       y2="42" />
  </defs>
  <sodipodi:namedview
     id="base"
     pagecolor="#ffffff"
     bordercolor="#666666"
     borderopacity="1.0"
     gridtolerance="10000"
     guidetolerance="10"
     objecttolerance="10"
     inkscape:pageopacity="0.0"
     inkscape:pageshadow="2"
     inkscape:zoom="10.375"
     inkscape:cx="12"
     inkscape:cy="11.807229"
     inkscape:document-units="px"
     inkscape:current-layer="layer1"
     showgrid="false"
     inkscape:window-width="643"
     inkscape:window-height="720"
     inkscape:window-x="795"
     inkscape:window-y="25"
     inkscape:window-maximized="0" />
  <metadata
     id="metadata7">
    <rdf:RDF>
      <cc:Work
         rdf:about="">
        <dc:format>image/svg+xml</dc:format>
        <dc:type
           rdf:resource="http://purl.org/dc/dcmitype/StillImage" />
      </cc:Work>
    </rdf:RDF>
  </metadata>
  <g
     inkscape:label="Layer 1"
     inkscape:groupmode="layer"
     id="layer1">
    <g
       id="g2822"
       style="opacity:0.29999999999999999"
       transform="matrix(0.510629,0,0,0.5,-0.5104105,0)">
      <rect
         transform="scale(-1,-1)"
         y="-48"
         x="-11"
         height="8"
         width="10"
         id="rect1892"
         style="opacity:1;fill:url(#radialGradient2527);fill-opacity:1;fill-rule:nonzero;stroke:none;stroke-width:1;stroke-linecap:square;stroke-linejoin:round;marker:none;marker-start:none;marker-mid:none;marker-end:none;stroke-miterlimit:4;stroke-dasharray:none;stroke-dashoffset:1.20000057;stroke-opacity:1;visibility:visible;display:inline;overflow:visible" />
      <rect
         y="40"
         x="38"
         height="8"
         width="10"
         id="rect2789"
         style="opacity:1;fill:url(#radialGradient2529);fill-opacity:1;fill-rule:nonzero;stroke:none;stroke-width:1;stroke-linecap:square;stroke-linejoin:round;marker:none;marker-start:none;marker-mid:none;marker-end:none;stroke-miterlimit:4;stroke-dasharray:none;stroke-dashoffset:1.20000057;stroke-opacity:1;visibility:visible;display:inline;overflow:visible" />
      <rect
         y="40"
         x="11"
         height="8"
         width="27"
         id="rect2793"
         style="opacity:1;fill:url(#linearGradient2531);fill-opacity:1;fill-rule:nonzero;stroke:none;stroke-width:1;stroke-linecap:square;stroke-linejoin:round;marker:none;marker-start:none;marker-mid:none;marker-end:none;stroke-miterlimit:4;stroke-dasharray:none;stroke-dashoffset:1.20000057;stroke-opacity:1;visibility:visible;display:inline;overflow:visible" />
    </g>
    <path
       style="fill:url(#linearGradient2521);fill-opacity:1;fill-rule:nonzero;stroke:#121212;stroke-width:1;stroke-linecap:round;stroke-linejoin:round;marker:none;marker-start:none;marker-mid:none;marker-end:none;stroke-miterlimit:4;stroke-dasharray:none;stroke-dashoffset:0;stroke-opacity:1;visibility:visible;display:inline;overflow:visible"
       d="M 21.114554,22.499466 L 2.8854499,22.499466 C 2.4692524,22.499466 2.5005343,22.530749 2.5005343,22.114553 L 2.5005343,3.8854488 C 2.5005343,3.4692501 2.4692524,3.5005347 2.8854499,3.5005347 L 19.749567,3.5005347 L 21.499467,5.2504373 L 21.499467,22.114553 C 21.499467,22.530749 21.53075,22.499466 21.114554,22.499466 z"
       id="rect1314"
       sodipodi:nodetypes="ccccccccc" />
    <path
       style="opacity:0.26190472999999997;fill:none;fill-opacity:1;fill-rule:nonzero;stroke:url(#linearGradient2518);stroke-width:0.99999994000000003;stroke-linecap:round;stroke-linejoin:round;marker:none;marker-start:none;marker-mid:none;marker-end:none;stroke-miterlimit:4;stroke-dasharray:none;stroke-dashoffset:0;stroke-opacity:1;visibility:visible;display:inline;overflow:visible"
       d="M 16.735448,9.4996183 L 5.2837027,9.4996183 C 4.8495314,9.4996183 4.5,9.1774677 4.5,8.7773087 L 4.5,3.4999999 L 17.519152,3.4999999 L 17.519152,8.7773087 C 17.519152,9.1774677 17.169621,9.4996183 16.735448,9.4996183 z"
       id="rect2194"
       sodipodi:nodetypes="ccccccc" />
    <path
       style="fill:url(#linearGradient3311);fill-opacity:1;fill-rule:nonzero;stroke:#555753;stroke-width:1;stroke-linecap:round;stroke-linejoin:round;marker:none;marker-start:none;marker-mid:none;marker-end:none;stroke-miterlimit:4;stroke-dasharray:none;stroke-dashoffset:0;stroke-opacity:1;visibility:visible;display:inline;overflow:visible"
       d="M 17.843752,9.4983721 C 18.259053,9.4630607 18.562314,9.0571381 18.500001,8.6497904 C 18.500001,6.9331936 18.500002,5.2165968 18.500002,3.5 C 15.166668,3.5 11.833334,3.5 8.5,3.5 C 8.5025616,5.2924061 8.4948734,7.0850896 8.5038501,8.8773221 C 8.5458375,9.3261886 9.0251375,9.5521893 9.432538,9.4983721 C 12.236276,9.4983721 15.040014,9.4983721 17.843752,9.4983721 z M 16.281252,8.5755444 C 15.614585,8.5755442 14.41891,8.5755444 13.752243,8.5755444 C 13.409794,8.5623421 13.473425,8.1865823 13.470993,7.9509239 C 13.470993,7.0152105 13.470993,5.6884915 13.470993,4.7527781 C 13.519272,4.4040966 13.921238,4.5097748 14.169472,4.4932324 C 14.706484,4.503812 15.77633,4.4717257 16.310867,4.5098926 C 16.599333,4.6308271 16.471572,4.9791256 16.500001,5.2221609 C 16.500001,6.1231051 16.500002,7.4150548 16.500002,8.315999 C 16.497455,8.4409367 16.394913,8.5412864 16.281252,8.5755444 z"
       id="rect2192"
       sodipodi:nodetypes="ccccccccssccccsc" />
    <path
       style="opacity:0.60674156999999995;fill:none;fill-opacity:1;fill-rule:nonzero;stroke:url(#linearGradient2505);stroke-width:1;stroke-linecap:round;stroke-linejoin:round;marker:none;marker-start:none;marker-mid:none;marker-end:none;stroke-miterlimit:4;stroke-dasharray:none;stroke-dashoffset:0;stroke-opacity:1;visibility:visible;display:inline;overflow:visible"
       d="M 17.264695,8.5000001 L 9.7353051,8.5000001 C 9.6049466,8.5000001 9.4999998,8.4139893 9.4999998,8.3071517 L 9.4999998,4.5000001 L 17.499999,4.5000001 L 17.499999,8.3071517 C 17.499999,8.4139893 17.395054,8.5000001 17.264695,8.5000001 z"
       id="rect2316"
       sodipodi:nodetypes="ccccccc" />
    <path
       style="opacity:0.59999999999999998;fill:none;fill-opacity:1;fill-rule:nonzero;stroke:url(#linearGradient2502);stroke-width:1;stroke-linecap:round;stroke-linejoin:round;marker:none;marker-start:none;marker-mid:none;marker-end:none;stroke-miterlimit:4;stroke-dasharray:none;stroke-dashoffset:0;stroke-opacity:1;visibility:visible;display:inline;overflow:visible"
       d="M 19.5,22.498017 L 19.5,12.257499 C 19.5,11.837845 19.162093,11.5 18.742362,11.5 L 5.2576373,11.5 C 4.8379062,11.5 4.5000001,11.837845 4.5000001,12.257499 L 4.5000001,22.498017 L 19.5,22.498017 z"
       id="rect2247"
       sodipodi:nodetypes="ccccccc" />
    <rect
       style="fill:url(#linearGradient2499);fill-opacity:1;fill-rule:nonzero;stroke:#e2e2df;stroke-width:1;stroke-linecap:round;stroke-linejoin:round;marker:none;marker-start:none;marker-mid:none;marker-end:none;stroke-miterlimit:4;stroke-dasharray:none;stroke-dashoffset:0;stroke-opacity:1;visibility:visible;display:inline;overflow:visible"
       id="rect2257"
       width="12.996577"
       height="9.9976692"
       x="5.5017123"
       y="-22.497669"
       rx="0.087624297"
       ry="0.089873798"
       transform="scale(1,-1)" />
    <path
       style="fill:#3f6cff;fill-opacity:0.75000000000000000;fill-rule:evenodd;stroke:#575757;stroke-width:1;stroke-linecap:round;stroke-linejoin:round;stroke-miterlimit:4;stroke-dasharray:none;stroke-opacity:1;display:inline"
       d="M 5.5179852,22.500001 L 18.482017,22.500001"
       id="path2264"
       sodipodi:nodetypes="cc" />
    <path
       style="fill:none;fill-opacity:0.75000000000000000;fill-rule:evenodd;stroke:#d3d7cf;stroke-width:1;stroke-linecap:round;stroke-linejoin:round;stroke-miterlimit:4;stroke-dasharray:none;stroke-opacity:1;display:inline"
       d="M 5.4999998,18.5 L 18.499999,18.5"
       id="path2329" />
    <path
       style="fill:none;fill-opacity:0.75000000000000000;fill-rule:evenodd;stroke:#d3d7cf;stroke-width:1;stroke-linecap:round;stroke-linejoin:round;stroke-miterlimit:4;stroke-dasharray:none;stroke-opacity:1;display:inline"
       d="M 5.4999998,15.5 L 18.499999,15.5"
       id="path2331" />
    <path
       style="opacity:0.50000000000000000;fill:url(#linearGradient3308);fill-opacity:1;fill-rule:nonzero;stroke:#555753;stroke-width:1;stroke-linecap:round;stroke-linejoin:round;marker:none;marker-start:none;marker-mid:none;marker-end:none;stroke-miterlimit:4;stroke-dasharray:none;stroke-dashoffset:0;stroke-opacity:1;visibility:visible;display:inline;overflow:visible"
       d="M 17.843752,9.4983721 C 18.259053,9.4630607 18.562314,9.0571381 18.500001,8.6497904 C 18.500001,6.9331936 18.500002,5.2165968 18.500002,3.5 C 15.166668,3.5 11.833334,3.5 8.5,3.5 C 8.5025616,5.2924061 8.4948734,7.0850896 8.5038501,8.8773221 C 8.5458375,9.3261886 9.0251375,9.5521893 9.432538,9.4983721 C 12.236276,9.4983721 15.040014,9.4983721 17.843752,9.4983721 z M 16.281252,8.506694 C 15.614585,8.5066938 14.44191,8.506694 13.775243,8.506694 C 13.432794,8.4934917 13.496425,8.1177319 13.493993,7.8820735 C 13.493993,6.9463601 13.493993,5.7114919 13.493993,4.7757785 C 13.542272,4.427097 13.944238,4.5327752 14.192472,4.5162328 C 14.729484,4.5268124 15.77633,4.4947261 16.310867,4.532893 C 16.599333,4.6538275 16.471572,5.002126 16.500001,5.2451613 C 16.500001,6.1461055 16.500002,7.3462044 16.500002,8.2471486 C 16.497455,8.3720863 16.394913,8.472436 16.281252,8.506694 z"
       id="path7255"
       sodipodi:nodetypes="ccccccccssccccsc" />
  </g>
</svg>
